X:1
T:Title
%%score { ( 1 4 ) | ( 2 3 ) }
L:1/8
Q:1/4=100
M:2/4
K:Db
V:1 treble nm="Grand Piano"
V:4 treble 
V:2 bass 
V:3 bass 
V:1
 [Fd]2 [FA]2 | [_FB]2 [A,=FA]2 | [EGc]>[EGB] (3[C-GA][CB][Gc] | [Fd]2 [FA]2 | D>E F>[EG] | %5
w: Mrs.~C.~H.~Morris *|||||
 [FA]2 [Af]2 | [Ae]>[Ac] [=Gd]>[GB] | A4 | e>c (3ABc | [Fd]2 [FA]2 | [Fd]>[Fc] [FB]>=A | %11
w: ||||||
 [DB]2 [DF]2 | B>c d>B | [FA]>[Fd] B>e | d2 [Ec]2 | [Fd]4 | [FA]2 (3[FA]AA | [GB]>A .[A,DF]>A | %18
w: |||||||
 [Fd]>A .[A,DF]>d | [Gc]4 | .[A,GA]2 (3[A,GA]AA | [GB]>A .[A,_F=G]>A | [Ge]>[Fd] [Ac]>B | [FA]4 | %24
w: ||||||
 A>A (3ABc | [Fd]3- [Fd]/[FA]/ | A>A (3ABc | [Fd]4 | [DGB]2 [DGd]2 | %29
w: |||||
[M:19/32] [DFA]/4-[DFA]/4-[DFA]/4-[DFA]/4-[DFA]/-<[DFA]/[Fd]/4-[Fd]/4-[Fd]/4-[Fd]/4-[Fd]/-<[Fd]/[Fd]3/4 | %30
w: |
[M:2/4] (3:2:2e2 e z2 | [Fd]4 |] %32
w: ||
V:2
 [D,A,]2 [D,A,]2 | [D,=G,]2 z z/ D/ | A,>A, (3A,,-[A,,G][A,,A,] | [D,A,]2 [D,D]2 | %4
 [D,F,]>[D,G,D] [D,A,D]>[D,A,] | [D,D]2 [D,D]2 | [E,C]>[E,E] [E,B,]>[E,D] | [A,CE]4 | %8
 [A,CG]>[A,G] (3:2:2[A,G]2 [A,G] | [D,A,]2 [D,A,]2 | [B,,B,]>[C,=A,] [D,B,]>[F,E] | %11
 [B,,F,]2 [B,,B,]2 | [G,G]>[G,A,G] [G,B,G]>[G,DG] | [D,D]>[D,D][K:treble] [G,DG]>[G,B,G] | %14
 [A,F]2[K:bass] [A,,A,]2 | [D,A,]4 | .[D,A,]2 (3[A,,A,][K:treble]FF | .[D,A,]>F .A,,>F | %18
 .[D,A,]>F .A,,>F | [E,A,]>E, E,2 | .C,2 (3A,,[K:treble]GG | .[C,A,]>F .A,,>F | %22
 .[C,A,]2 .[A,,A,]>G | D,>D, D,>D, | [A,CG]>[A,CG] (3:2:2[A,G]2 [A,G] | [D,A,]3- [D,A,]/[D,D]/ | %26
 [A,CG]>[A,CG] (3:2:2[A,G]2 [A,G] | [D,A,]4 | G,2 B,,2 | %29
[M:19/32] D,/4-D,/4-D,/4-D,/4-D,/-<D,/[D,A,]/4-[D,A,]/4-[D,A,]/4-[D,A,]/4-[D,A,]/-<[D,A,]/[D,A,]3/4 | %30
[M:2/4][K:treble] (5:4:4[G,B,G]2 [G,B,G]/ [A,G]3/2[K:bass][A,,A,] | [D,A,]4 |] %32
V:3
 x4 | z2 D,2 | x4 | x4 | x4 | x4 | x4 | x4 | x4 | x4 | x4 | x4 | x4 | x2[K:treble] x2 | %14
 x2[K:bass] x2 | x4 | x8/3[K:treble] x4/3 | x4 | x4 | x4 | x8/3[K:treble] x4/3 | x4 | x4 | x4 | %24
 x4 | x4 | x4 | x4 | x4 |[M:19/32] x19/4 |[M:2/4][K:treble] x16/5[K:bass] x4/5 | x4 |] %32
V:4
 x4 | x4 | x4 | x4 | x4 | x4 | x4 | x4 | x4 | x4 | x4 | x4 | x4 | x4 | x4 | x4 | x4 | x4 | x4 | %19
 z z/ A,/ A,2 | x4 | x4 | x4 | A,>D D>[DFA] | x4 | x4 | x4 | x4 | x4 |[M:19/32] x19/4 | %30
[M:2/4] z2 (3cB[Gc] | x4 |] %32

